img/nextArrow.svg

<svg width="32" height="20" viewBox="0 0 32 20" fill="none" xmlns="http://www.w3.org/2000/svg">
<path d="M3.73745 11.2373L24.7834 11.2373L20.1596 15.8611C19.5219 16.4988 19.5219 17.4555 20.1596 18.0932C20.7974 18.731 21.754 18.731 22.3918 18.0932L29.726 10.759C30.3637 10.1213 30.3637 9.16464 29.726 8.52689L22.3918 1.1927C21.754 0.55495 20.7974 0.55495 20.1596 1.1927C19.5219 1.83046 19.5219 2.78709 20.1596 3.42485L24.7834 8.04857L3.73745 8.04857C2.94025 8.04857 2.14306 8.68633 2.14306 9.64296C2.14306 10.5996 2.94025 11.2373 3.73745 11.2373Z" fill="#458FF6"/>
</svg>

<svg width="32" height="20" fill="none" xmlns="http://www.w3.org/2000/svg"><path d="M3.737 11.237h21.046l-4.623 4.624c-.638.638-.638 1.595 0 2.232.637.638 1.594.638 2.232 0l7.334-7.334c.638-.638.638-1.594 0-2.232l-7.334-7.334c-.638-.638-1.595-.638-2.232 0-.638.637-.638 1.594 0 2.232l4.623 4.624H3.737c-.797 0-1.594.637-1.594 1.594 0 .957.797 1.594 1.594 1.594z" fill="#458FF6"/></svg>
